64x64/apps/appimagekit-laigter.svg

<svg xmlns="http://www.w3.org/2000/svg" width="64" height="64" version="1.1">
 <path style="opacity:0.2" d="m 10,38.833334 c 0,-21 22.5,-17.5 22.5,-25.666667 C 32.5,9.6666667 27.763158,5 27.763158,5 c 0,0 10.12346,2.6224334 14.210526,9.333334 3.552632,5.833332 2.368422,9.333332 -2.36842,15.166666 8.289472,-2.333334 8.289472,-8.166666 8.289472,-8.166666 0,0 7.105264,5.833332 7.105264,17.5 C 55,49.333334 46.710526,61 32.5,61 18.289474,61 10,50.5 10,38.833334 Z"/>
 <path style="fill:#ff7711" d="m 10,37.833334 c 0,-21 22.5,-17.5 22.5,-25.666667 C 32.5,8.6666667 27.763158,4 27.763158,4 c 0,0 10.12346,2.6224334 14.210526,9.333334 3.552632,5.833332 2.368422,9.333332 -2.36842,15.166666 8.289472,-2.333334 8.289472,-8.166666 8.289472,-8.166666 0,0 7.105264,5.833332 7.105264,17.5 C 55,48.333334 46.710526,60 32.5,60 18.289474,60 10,49.5 10,37.833334 Z"/>
 <path style="opacity:0.2" d="M 23,44.857143 C 23,40.285714 24.1875,35.714285 30.125001,30 31.3125,36.857143 42,38 42,44.857143 42,49.428571 38.4375,54 32.5,54 26.5625,54 23,49.428571 23,44.857143 Z"/>
 <path style="fill:#ffda3b" d="M 23,43.857143 C 23,39.285714 24.1875,34.714285 30.125001,29 31.3125,35.857143 42,37 42,43.857143 42,48.428571 38.4375,53 32.5,53 26.5625,53 23,48.428571 23,43.857143 Z"/>
 <path style="fill:#f4f4f7;opacity:0.2" d="M 27.763672 4 C 27.763672 4 28.319055 4.5586532 29.033203 5.3964844 C 31.700841 6.257412 38.676308 8.9182236 41.974609 14.333984 C 43.258478 16.442065 43.915075 18.244022 44.017578 19.962891 C 44.155261 17.937707 43.509235 15.853801 41.974609 13.333984 C 37.887543 6.6230838 27.763672 4 27.763672 4 z M 32.458984 12.638672 C 31.587807 20.194053 10 17.257439 10 37.833984 C 10 37.980216 10.016931 38.123684 10.019531 38.269531 C 10.42992 17.912621 32.5 21.256801 32.5 13.166016 C 32.5 12.993334 32.480907 12.816333 32.458984 12.638672 z M 47.894531 20.333984 C 47.894531 20.333984 47.87543 25.655928 40.634766 28.164062 C 40.301884 28.603273 39.984435 29.033309 39.605469 29.5 C 47.894941 27.166666 47.894531 21.333984 47.894531 21.333984 C 47.894531 21.333984 54.751283 26.989341 54.978516 38.273438 C 54.981704 38.127257 55 37.979749 55 37.833984 C 55 26.167316 47.894531 20.333984 47.894531 20.333984 z"/>
 <path style="fill:#f4f4f7;opacity:0.2" d="M 30.125 29 C 24.187499 34.714285 23 39.285993 23 43.857422 C 23 44.001596 23.014435 44.145032 23.021484 44.289062 C 23.121554 39.904943 24.433219 35.477803 30.125 30 C 31.283479 36.68957 41.47678 37.943422 41.974609 44.367188 C 41.984433 44.197154 42 44.027691 42 43.857422 C 42 37.000279 31.312499 35.857143 30.125 29 z"/>
</svg>

<svg xmlns="http://www.w3.org/2000/svg" width="64" height="64"><path style="opacity:.2" d="M10 38.833c0-21 22.5-17.5 22.5-25.666C32.5 9.667 27.763 5 27.763 5s10.124 2.622 14.21 9.333c3.553 5.834 2.37 9.334-2.368 15.167 8.29-2.333 8.29-8.167 8.29-8.167S55 27.167 55 38.833C55 49.333 46.71 61 32.5 61S10 50.5 10 38.833z"/><path style="fill:#f71" d="M10 37.833c0-21 22.5-17.5 22.5-25.666C32.5 8.667 27.763 4 27.763 4s10.124 2.622 14.21 9.333c3.553 5.834 2.37 9.334-2.368 15.167 8.29-2.333 8.29-8.167 8.29-8.167S55 26.167 55 37.833C55 48.333 46.71 60 32.5 60S10 49.5 10 37.833z"/><path style="opacity:.2" d="M23 44.857c0-4.571 1.188-9.143 7.125-14.857C31.313 36.857 42 38 42 44.857 42 49.43 38.437 54 32.5 54c-5.938 0-9.5-4.571-9.5-9.143z"/><path style="fill:#ffda3b" d="M23 43.857c0-4.571 1.188-9.143 7.125-14.857C31.313 35.857 42 37 42 43.857 42 48.43 38.437 53 32.5 53c-5.938 0-9.5-4.571-9.5-9.143z"/><path style="fill:#f4f4f7;opacity:.2" d="M27.764 4s.555.559 1.27 1.396c2.667.861 9.642 3.522 12.94 8.938 1.284 2.108 1.941 3.91 2.044 5.629.137-2.025-.509-4.11-2.043-6.629C37.888 6.624 27.764 4 27.764 4zm4.695 8.639C31.588 20.194 10 17.257 10 37.834c0 .146.017.29.02.436.41-20.357 22.48-17.013 22.48-25.104 0-.173-.02-.35-.041-.527zm15.436 7.695s-.02 5.322-7.26 7.83c-.333.44-.65.87-1.03 1.336 8.29-2.333 8.29-8.166 8.29-8.166s6.856 5.655 7.084 16.94c.003-.147.021-.294.021-.44 0-11.667-7.105-17.5-7.105-17.5zM30.125 29C24.187 34.714 23 39.286 23 43.857c0 .145.014.288.021.432.1-4.384 1.412-8.811 7.104-14.289 1.158 6.69 11.352 7.943 11.85 14.367.01-.17.025-.34.025-.51C42 37 31.312 35.857 30.125 29z"/></svg>
